packages/dnb-ui-lib/assets/icons/office_buildings_medium.svg

<svg width="24" height="24" viewBox="0 0 24 24" fill="none" xmlns="http://www.w3.org/2000/svg">
<path d="M1 16V22C1 22.5523 1.44772 23 2 23H3C3.55228 23 4 22.5523 4 22V21C4 20.4477 4.44772 20 5 20H6C6.55228 20 7 20.4477 7 21V22C7 22.5523 7.44772 23 8 23H11C11.5523 23 12 22.5523 12 22V11C12 10.4477 11.5523 10 11 10H2C1.44772 10 1 10.4477 1 11V13M1 16H3.5M1 16V13M1 13H5.5M14.5 7H12C11.4477 7 11 6.55228 11 6V4M14.5 23H15V21C15 20.4477 15.4477 20 16 20H17C17.5523 20 18 20.4477 18 21V22C18 22.5523 18.4477 23 19 23H22C22.5523 23 23 22.5523 23 22V2C23 1.44772 22.5523 1 22 1H12C11.4477 1 11 1.44772 11 2V4M11 4H17.5" stroke="black" stroke-width="1.5" stroke-linecap="round" stroke-linejoin="round"/>
</svg>

<svg width="24" height="24" viewBox="0 0 24 24" fill="none" xmlns="http://www.w3.org/2000/svg"><path d="M1 16v6a1 1 0 001 1h1a1 1 0 001-1v-1a1 1 0 011-1h1a1 1 0 011 1v1a1 1 0 001 1h3a1 1 0 001-1V11a1 1 0 00-1-1H2a1 1 0 00-1 1v2m0 3h2.5M1 16v-3m0 0h4.5m9-6H12a1 1 0 01-1-1V4m3.5 19h.5v-2a1 1 0 011-1h1a1 1 0 011 1v1a1 1 0 001 1h3a1 1 0 001-1V2a1 1 0 00-1-1H12a1 1 0 00-1 1v2m0 0h6.5" stroke="#000" stroke-width="1.5" stroke-linecap="round" stroke-linejoin="round"/></svg>
